Gruvbox-Plus-Dark/devices/scalable/input-mouse.svg

<svg width="256" height="256" style="isolation:isolate" version="1.1" viewBox="0 0 256 256" xmlns="http://www.w3.org/2000/svg">
  <defs>
    <filter id="a-3" x="-.04224" y="-.0452" width="1.084" height="1.108" color-interpolation-filters="sRGB">
      <feGaussianBlur in="SourceGraphic" stdDeviation="4.294"/>
      <feOffset dy="4" result="pf_100_offsetBlur"/>
      <feFlood flood-opacity=".4"/>
      <feComposite in2="pf_100_offsetBlur" operator="in" result="pf_100_dropShadow"/>
      <feBlend in="SourceGraphic" in2="pf_100_dropShadow"/>
    </filter>
    <linearGradient id="b-5" x1=".5002" x2=".5002" y2="1" gradientTransform="matrix(244,0,0,228,5.981,12.12)" gradientUnits="userSpaceOnUse">
      <stop stop-color="#83a598" offset="0"/>
      <stop stop-color="#458588" offset="1"/>
    </linearGradient>
    <linearGradient id="linearGradient31" x1=".5002" x2=".5002" y2="1" gradientTransform="matrix(244,0,0,228,5.986,12)" gradientUnits="userSpaceOnUse">
      <stop stop-color="#ebdbb2" offset="0"/>
      <stop stop-color="#ebdbb2" stop-opacity=".09804" offset=".1"/>
      <stop stop-color="#282828" stop-opacity=".1" offset=".9"/>
      <stop stop-color="#282828" stop-opacity=".4" offset="1"/>
    </linearGradient>
  </defs>
  <g transform="translate(9.09e-6 -.12)" filter="url(#a-3)" style="isolation:isolate">
    <path d="m165 12.12c72 0 85 15 85 87v56c0 70-13 85-85 85h-74c-72 0-85-15-85-85v-56c0-72 13-87 85-87z" fill="url(#b-5)"/>
  </g>
  <g transform="translate(9.09e-6 -.12)" opacity=".5" style="isolation:isolate">
    <path transform="translate(-.004996 .116)" d="m91 12c-72 0-85 15-85 87v56c0 70 13 85 85 85h74c72 0 85-15 85-85v-56c0-72-13-87-85-87zm0 4h74c68 0 80 15 80 83v56c0 66-12 81-80 81h-74c-68 0-80-15-80-81v-56c0-68 12-83 80-83z" fill="url(#linearGradient31)" opacity="1"/>
  </g>
  <g style="isolation:isolate">
    <path d="m122.8 55.5-0.164 0.324c0.107 0.748 0.162 1.506 0.162 2.265-3e-3 2.803-0.734 5.529-2.083 7.768h5.745c0.994-2.426 1.512-5.079 1.518-7.768-8e-3 -0.867-0.069-1.732-0.183-2.589h-4.995z" fill="#3c3836"/>
    <g filter="url(#GpxTNZbA3P94JNG0hQSUHPltomTsJGyl)" opacity=".4">
      <g opacity=".4">
        <path d="m128 64c-14.96 4.547-20.3 5.707-36.25 10.36-4.889 17.29-6.645 30.4-4.288 50.25-0.241 0.958-0.479 2.02-0.728 3.004l-0.163-1.466v2.134c-0.544 2.169-1.09 4.313-1.577 6.595-1.525 3.386-3.602 8.384-3.602 11.99 0 3.897 0.728 6.807 2.934 13.66 0.541 2.345 1.225 4.694 2.245 7.05 1.295 10.48 2.884 13.14 8.982 20.64 12.92 7.431 20.2 13.02 32.45 15.61 10.79-1.874 21.63-8.669 28.27-15.64l2.802 0.111c5.412-5.79 9.001-13.7 10.36-20.72 5.179-20.71 5.179-15.54 5.179-20.71 0-2.753-1.38-9.498-2.752-15.59-0.8-5.3-1.999-10.68-3.519-16.57l0.059-9.274 0.86-1.041c-0.054-6.826-0.624-10.46-1.872-15.97l-0.679-2.214-1.83-1.023c-0.627-4.938-1.846-9.816-4.775-13.93-12.22 0.487-24.41-6.639-32.1-7.253" fill-rule="evenodd"/>
      </g>
    </g>
    <defs>
      <filter id="GpxTNZbA3P94JNG0hQSUHPltomTsJGyl" x="-.1106" y="-.07371" width="1.221" height="1.147" color-interpolation-filters="sRGB">
        <feGaussianBlur stdDeviation="4.294"/>
      </filter>
    </defs>
    <linearGradient id="_lgradient_37" x1="-10.85" x2="-10.85" y1="1" gradientTransform="matrix(93.22 0 0 139.8 81.39 60.68)" gradientUnits="userSpaceOnUse">
      <stop stop-color="#282828" offset="0"/>
      <stop stop-color="#665c54" offset="1"/>
    </linearGradient>
    <path d="m128 60.68c-14.96 4.547-20.3 5.707-36.25 10.36-4.889 17.29-6.645 30.4-4.288 50.25-0.241 0.958-0.479 2.019-0.728 3.003l-0.163-1.465v2.133c-0.544 2.17-1.09 4.314-1.577 6.595-1.525 3.387-3.602 8.385-3.602 11.99 0 3.897 0.728 6.808 2.934 13.66 0.541 2.346 1.225 4.695 2.245 7.051 1.295 10.48 2.884 13.14 8.982 20.63 12.92 7.432 20.2 13.02 32.45 15.61 10.79-1.875 21.63-8.669 28.27-15.64l2.802 0.112c5.412-5.79 9.001-13.7 10.36-20.72 5.179-20.72 5.179-15.54 5.179-20.72 0-2.752-1.38-9.497-2.752-15.59-0.8-5.301-1.999-10.68-3.519-16.57l0.059-9.275 0.86-1.041c-0.054-6.825-0.624-10.46-1.872-15.97l-0.679-2.214-1.83-1.022c-0.627-4.938-1.846-9.817-4.775-13.93-12.22 0.486-24.41-6.639-32.1-7.253" fill="url(#_lgradient_37)" fill-rule="evenodd"/>
    <g opacity=".6">
      <g opacity=".6">
        <path d="m96.92 164.3 5.438-6.344c1.061-1.365 0.891-2.071 0.891-3.237-0.052-1.859-0.107-3.503-0.169-5-0.062-1.496-0.132-2.845-0.22-4.114-0.085-1.269-0.189-2.46-0.313-3.635-0.35-3.957-1.121-5.777-2.261-6.321l-5.437-2.457c1.248 10.04 1.9 20.43 2.071 31.1" fill="#282828" fill-rule="evenodd"/>
      </g>
    </g>
    <linearGradient id="_lgradient_38" x1=".001" x2="1.053" y1="-28.2" y2="-28.2" gradientTransform="matrix(9.842 0 0 47.8 81.38 120)" gradientUnits="userSpaceOnUse">
      <stop stop-color="#3c3836" offset="0"/>
      <stop stop-color="#665c54" offset="1"/>
    </linearGradient>
    <path d="m87.32 120c0.041 0.438 0.077 0.86 0.132 1.316-0.241 0.958-0.479 2.019-0.728 3.003l-0.163-1.465v2.133c-0.544 2.17-1.09 4.314-1.577 6.595-1.525 3.387-3.602 8.385-3.602 11.99 0 3.897 0.728 6.808 2.934 13.66 0.541 2.346 1.225 4.695 2.245 7.051 0.174 1.398 0.383 2.424 0.588 3.519 8.042-21.95 2.017-42.44 0.171-47.8z" fill="url(#_lgradient_38)" fill-rule="evenodd"/>
    <linearGradient id="_lgradient_39" x1=".471" x2=".998" y1="-21.41" y2="-21.41" gradientTransform="matrix(9.811 0 0 62.69 164.8 114.1)" gradientUnits="userSpaceOnUse">
      <stop stop-color="#282828" offset="0"/>
      <stop stop-color="#665c54" stop-opacity=".463" offset="1"/>
    </linearGradient>
    <path d="m169 114.1-4.176 62.69c2.216-4.088 3.845-8.425 4.632-12.5 5.179-20.72 5.179-15.54 5.179-20.72 0-2.752-1.38-9.497-2.753-15.59-0.676-4.464-1.688-9.053-2.882-13.89" fill="url(#_lgradient_39)" fill-rule="evenodd"/>
    <linearGradient id="_lgradient_40" x1="1.722" x2="1.632" y2="1.339" gradientTransform="matrix(9.024 0 0 44.7 86.56 138.4)" gradientUnits="userSpaceOnUse">
      <stop stop-color="#282828" offset="0"/>
      <stop stop-color="#665c54" offset="1"/>
    </linearGradient>
    <path d="m91.75 138.4-0.689 2.053c0.409 8.029-0.293 17.51-3.905 27.36-0.202-1.095-0.414-2.121-0.588-3.519 1.173 9.503 2.766 12.72 7.566 18.8 2.535-13.72 1.779-41.9-2.387-44.7" fill="url(#_lgradient_40)" fill-rule="evenodd"/>
    <path d="m128 60.68c-0.546 0.165-0.774 0.217-1.294 0.375v65.65c0 0.717 0.577 1.294 1.294 1.294s1.295-0.577 1.295-1.294v-65.82c-0.427-0.067-0.891-0.181-1.295-0.212z" fill="#282828" fill-opacity=".384"/>
    <linearGradient id="_lgradient_41" x2="0" y2="1" gradientTransform="matrix(12.43 0 0 7.768 121.8 109.9)" gradientUnits="userSpaceOnUse">
      <stop stop-color="#fabd2f" offset="0"/>
      <stop stop-color="#b57614" offset="1"/>
    </linearGradient>
    <path d="m121.8 109.9v5.179l6.214 2.589 6.215-2.589v-5.179l-6.215 2.589-6.214-2.589z" fill="url(#_lgradient_41)" fill-rule="evenodd"/>
    <linearGradient id="_lgradient_42" x2="0" y2="1" gradientTransform="matrix(12.43 0 0 7.768 121.8 96.93)" gradientUnits="userSpaceOnUse">
      <stop stop-color="#fabd2f" offset="0"/>
      <stop stop-color="#b57614" offset="1"/>
    </linearGradient>
    <path d="m121.8 104.7v-5.178l6.214-2.59 6.215 2.59v5.178l-6.215-2.589-6.214 2.589z" fill="url(#_lgradient_42)" fill-rule="evenodd"/>
    <linearGradient id="_lgradient_43" x2="0" y1=".5" y2="-.5" gradientTransform="matrix(10.36 0 0 20.72 122.8 71.55)" gradientUnits="userSpaceOnUse">
      <stop stop-color="#282828" offset=".025"/>
      <stop stop-color="#665c54" offset="1"/>
    </linearGradient>
    <path d="m124.1 71.55h7.768c0.715 0 1.295 0.58 1.295 1.295v18.12c0 0.714-0.58 1.295-1.295 1.295h-7.768c-0.714 0-1.295-0.581-1.295-1.295v-18.12c0-0.715 0.581-1.295 1.295-1.295z" fill="url(#_lgradient_43)"/>
    <linearGradient id="_lgradient_44" x2="0" y2="1" gradientTransform="matrix(6.512 0 0 46.86 164.3 81.13)" gradientUnits="userSpaceOnUse">
      <stop stop-color="#fabd2f" offset="0"/>
      <stop stop-color="#b57614" offset="1"/>
    </linearGradient>
    <path d="m164.8 81.13-0.505 0.254c2.175 4.353 3.405 13.26 4.137 22.15l0.011-1.437 0.86-1.041c-0.055-6.826-0.625-10.46-1.873-15.97l-0.678-2.214-1.831-1.023c-0.031-0.241-0.088-0.476-0.121-0.717m4.257 33.08c0.321 7.517 0.414 13.78 0.414 13.78l1.336-5.989c-0.502-2.517-1.095-5.124-1.75-7.794" fill="url(#_lgradient_44)" fill-rule="evenodd"/>
  </g>
</svg>

<svg xmlns="http://www.w3.org/2000/svg" style="isolation:isolate" width="256" height="256" viewBox="0 0 256 256">
 <defs>
  <clipPath id="_clipPath_5NZ8mEWCISMdikAZVR6gsDzsppxXq79l">
   <rect width="256" height="256"/>
  </clipPath>
 </defs>
 <g clip-path="url(#_clipPath_5NZ8mEWCISMdikAZVR6gsDzsppxXq79l)">
  <defs>
   <filter id="bvwS1YqqXYB3EbcNLx0tneorCajOAnQQ" width="400%" height="400%" x="-200%" y="-200%" color-interpolation-filters="sRGB" filterUnits="objectBoundingBox">
    <feGaussianBlur xmlns="http://www.w3.org/2000/svg" in="SourceGraphic" stdDeviation="4.294"/>
    <feOffset xmlns="http://www.w3.org/2000/svg" dx="0" dy="4" result="pf_100_offsetBlur"/>
    <feFlood xmlns="http://www.w3.org/2000/svg" flood-opacity=".4"/>
    <feComposite xmlns="http://www.w3.org/2000/svg" in2="pf_100_offsetBlur" operator="in" result="pf_100_dropShadow"/>
    <feBlend xmlns="http://www.w3.org/2000/svg" in="SourceGraphic" in2="pf_100_dropShadow" mode="normal"/>
   </filter>
  </defs>
  <g filter="url(#bvwS1YqqXYB3EbcNLx0tneorCajOAnQQ)">
   <linearGradient id="_lgradient_35" x1=".5" x2=".5" y1="0" y2="1" gradientTransform="matrix(244.648,0,0,228.338,5.68,11.95)" gradientUnits="userSpaceOnUse">
    <stop offset="0%" style="stop-color:#83a598"/>
    <stop offset="100%" style="stop-color:#458588"/>
   </linearGradient>
   <path fill="url(#_lgradient_35)" d="M 165.689 11.95 C 239.745 11.95 250.328 22.507 250.328 96.494 L 250.328 155.745 C 250.328 229.731 239.745 240.288 165.689 240.288 L 90.319 240.288 C 16.264 240.288 5.68 229.731 5.68 155.745 L 5.68 96.494 C 5.68 22.507 16.264 11.95 90.319 11.95 L 165.689 11.95 Z"/>
  </g>
  <g opacity=".4">
   <linearGradient id="_lgradient_36" x1=".517" x2=".517" y1="0" y2="1" gradientTransform="matrix(244.65,0,0,228.34,5.68,11.95)" gradientUnits="userSpaceOnUse">
    <stop offset="0%" style="stop-color:#ebdbb2"/>
    <stop offset="12.5%" stop-opacity=".098" style="stop-color:#ebdbb2"/>
    <stop offset="92.5%" stop-opacity=".098" style="stop-color:#282828"/>
    <stop offset="100%" stop-opacity=".498" style="stop-color:#282828"/>
   </linearGradient>
   <path fill="url(#_lgradient_36)" fill-rule="evenodd" d="M 165.068 11.951 C 169.396 11.941 173.724 11.991 178.052 12.089 C 181.927 12.167 185.803 12.315 189.678 12.541 C 193.131 12.737 196.583 13.022 200.026 13.395 C 203.085 13.73 206.144 14.181 209.174 14.741 C 211.889 15.243 214.574 15.881 217.22 16.657 C 219.62 17.355 221.971 18.219 224.243 19.241 C 226.358 20.184 228.384 21.304 230.302 22.591 C 232.142 23.829 233.863 25.244 235.437 26.806 C 237.001 28.378 238.417 30.088 239.656 31.925 C 240.945 33.841 242.066 35.865 243.02 37.967 C 244.043 40.247 244.909 42.585 245.617 44.972 C 246.394 47.615 247.034 50.297 247.535 53.009 C 248.096 56.035 248.548 59.081 248.883 62.136 C 249.257 65.575 249.542 69.014 249.739 72.462 C 249.965 76.323 250.112 80.194 250.201 84.055 C 250.289 88.378 250.339 92.701 250.329 97.014 L 250.329 155.226 C 250.339 159.549 250.289 163.862 250.201 168.185 C 250.112 172.056 249.965 175.917 249.739 179.778 C 249.542 183.226 249.257 186.675 248.883 190.104 C 248.548 193.159 248.096 196.215 247.535 199.241 C 247.034 201.943 246.394 204.625 245.617 207.268 C 244.909 209.655 244.043 212.003 243.02 214.273 C 242.066 216.385 240.945 218.399 239.656 220.315 C 238.417 222.152 237.001 223.872 235.437 225.434 C 233.863 226.996 232.142 228.411 230.302 229.649 C 228.384 230.936 226.358 232.056 224.243 232.999 C 221.971 234.021 219.62 234.885 217.22 235.593 C 214.574 236.369 211.889 237.007 209.174 237.499 C 206.144 238.068 203.085 238.51 200.026 238.845 C 196.583 239.218 193.131 239.503 189.678 239.699 C 185.803 239.925 181.927 240.073 178.052 240.161 C 173.724 240.249 169.396 240.299 165.068 240.289 L 90.942 240.289 C 86.614 240.299 82.286 240.249 77.958 240.161 C 74.083 240.073 70.207 239.925 66.332 239.699 C 62.879 239.503 59.427 239.218 55.984 238.845 C 52.925 238.51 49.866 238.068 46.836 237.499 C 44.121 237.007 41.436 236.369 38.79 235.593 C 36.39 234.885 34.039 234.021 31.767 232.999 C 29.652 232.056 27.626 230.936 25.708 229.649 C 23.868 228.411 22.147 226.996 20.573 225.434 C 19.009 223.872 17.593 222.152 16.354 220.315 C 15.065 218.399 13.944 216.385 12.99 214.273 C 11.967 212.003 11.101 209.655 10.393 207.268 C 9.616 204.625 8.976 201.943 8.475 199.241 C 7.914 196.215 7.462 193.159 7.127 190.104 C 6.753 186.675 6.468 183.226 6.271 179.778 C 6.045 175.917 5.898 172.056 5.809 168.185 C 5.721 163.862 5.671 159.549 5.681 155.226 L 5.681 97.014 C 5.671 92.701 5.721 88.378 5.809 84.055 C 5.898 80.194 6.045 76.323 6.271 72.462 C 6.468 69.014 6.753 65.575 7.127 62.136 C 7.462 59.081 7.914 56.035 8.475 53.009 C 8.976 50.297 9.616 47.615 10.393 44.972 C 11.101 42.585 11.967 40.247 12.99 37.967 C 13.944 35.865 15.065 33.841 16.354 31.925 C 17.593 30.088 19.009 28.378 20.573 26.806 C 22.147 25.244 23.868 23.829 25.708 22.591 C 27.626 21.304 29.652 20.184 31.767 19.241 C 34.039 18.219 36.39 17.355 38.79 16.657 C 41.436 15.881 44.121 15.243 46.836 14.741 C 49.866 14.181 52.925 13.73 55.984 13.395 C 59.427 13.022 62.879 12.737 66.332 12.541 C 70.207 12.315 74.083 12.167 77.958 12.089 C 82.286 11.991 86.614 11.941 90.942 11.951 L 165.068 11.951 Z M 165.078 15.96 C 169.376 15.95 173.675 15.999 177.973 16.087 C 181.8 16.176 185.626 16.323 189.452 16.539 C 192.836 16.736 196.219 17.011 199.583 17.384 C 202.554 17.699 205.515 18.131 208.446 18.681 C 211.023 19.153 213.58 19.762 216.099 20.499 C 218.322 21.147 220.495 21.953 222.6 22.896 C 224.509 23.751 226.338 24.763 228.069 25.922 C 229.692 27.013 231.207 28.26 232.594 29.646 C 233.981 31.031 235.23 32.544 236.332 34.165 C 237.492 35.894 238.506 37.712 239.361 39.608 C 240.306 41.72 241.112 43.892 241.761 46.102 C 242.509 48.617 243.109 51.162 243.591 53.736 C 244.132 56.664 244.565 59.611 244.889 62.578 C 245.263 65.938 245.539 69.308 245.735 72.688 C 245.952 76.51 246.109 80.322 246.188 84.144 C 246.276 88.437 246.325 92.721 246.325 97.014 C 246.325 97.014 246.325 97.014 246.325 97.014 L 246.325 155.226 C 246.325 155.226 246.325 155.226 246.325 155.226 C 246.325 159.519 246.276 163.803 246.188 168.096 C 246.109 171.918 245.952 175.74 245.735 179.552 C 245.539 182.932 245.263 186.302 244.889 189.672 C 244.565 192.629 244.132 195.576 243.591 198.504 C 243.109 201.078 242.509 203.623 241.761 206.138 C 241.112 208.358 240.306 210.52 239.361 212.632 C 238.506 214.528 237.492 216.356 236.332 218.075 C 235.23 219.706 233.981 221.219 232.594 222.604 C 231.207 223.98 229.692 225.227 228.069 226.318 C 226.338 227.477 224.509 228.489 222.6 229.344 C 220.495 230.297 218.322 231.093 216.099 231.741 C 213.58 232.478 211.023 233.087 208.446 233.559 C 205.515 234.109 202.554 234.541 199.583 234.865 C 196.219 235.229 192.836 235.514 189.452 235.701 C 185.626 235.917 181.8 236.074 177.973 236.153 C 173.675 236.251 169.376 236.29 165.078 236.29 C 165.078 236.29 165.078 236.29 165.068 236.29 L 90.942 236.29 C 90.932 236.29 90.932 236.29 90.932 236.29 C 86.634 236.29 82.335 236.251 78.037 236.153 C 74.21 236.074 70.384 235.917 66.558 235.701 C 63.174 235.514 59.791 235.229 56.427 234.865 C 53.456 234.541 50.495 234.109 47.564 233.559 C 44.987 233.087 42.43 232.478 39.911 231.741 C 37.688 231.093 35.515 230.297 33.41 229.344 C 31.501 228.489 29.672 227.477 27.941 226.318 C 26.318 225.227 24.803 223.98 23.416 222.604 C 22.029 221.219 20.78 219.706 19.678 218.075 C 18.518 216.356 17.504 214.528 16.649 212.632 C 15.704 210.52 14.898 208.358 14.249 206.138 C 13.501 203.623 12.901 201.078 12.419 198.504 C 11.878 195.576 11.445 192.629 11.121 189.672 C 10.747 186.302 10.472 182.932 10.275 179.552 C 10.058 175.74 9.901 171.918 9.822 168.096 C 9.734 163.803 9.685 159.519 9.685 155.226 C 9.685 155.226 9.685 155.226 9.685 155.226 L 9.685 97.014 C 9.685 97.014 9.685 97.014 9.685 97.014 C 9.685 92.721 9.734 88.437 9.822 84.144 C 9.901 80.322 10.058 76.51 10.275 72.688 C 10.472 69.308 10.747 65.938 11.121 62.578 C 11.445 59.611 11.878 56.664 12.419 53.736 C 12.901 51.162 13.501 48.617 14.249 46.102 C 14.898 43.892 15.704 41.72 16.649 39.608 C 17.504 37.712 18.518 35.894 19.678 34.165 C 20.78 32.544 22.029 31.031 23.416 29.646 C 24.803 28.26 26.318 27.013 27.941 25.922 C 29.672 24.763 31.501 23.751 33.41 22.896 C 35.515 21.953 37.688 21.147 39.911 20.499 C 42.43 19.762 44.987 19.153 47.564 18.681 C 50.495 18.131 53.456 17.699 56.427 17.384 C 59.791 17.011 63.174 16.736 66.558 16.539 C 70.384 16.323 74.21 16.176 78.037 16.087 C 82.335 15.999 86.634 15.95 90.932 15.96 C 90.932 15.96 90.932 15.96 90.942 15.96 L 165.068 15.96 C 165.078 15.96 165.078 15.96 165.078 15.96 Z"/>
  </g>
  <g>
   <path fill="#3c3836" d="M 122.818 55.5 L 122.654 55.824 C 122.761 56.572 122.816 57.33 122.816 58.089 C 122.813 60.892 122.082 63.618 120.733 65.857 L 126.478 65.857 C 127.472 63.431 127.99 60.778 127.996 58.089 C 127.988 57.222 127.927 56.357 127.813 55.5 L 122.818 55.5 Z"/>
   <g style="opacity:0.4" filter="url(#GpxTNZbA3P94JNG0hQSUHPltomTsJGyl)">
    <g opacity=".4">
     <path fill-rule="evenodd" d="M 127.996 64 C 113.04 68.547 107.698 69.707 91.746 74.357 C 86.857 91.649 85.101 104.759 87.458 124.606 C 87.217 125.564 86.979 126.626 86.73 127.61 L 86.567 126.144 L 86.567 128.278 C 86.023 130.447 85.477 132.591 84.99 134.873 C 83.465 138.259 81.388 143.257 81.388 146.859 C 81.388 150.756 82.116 153.666 84.322 160.523 C 84.863 162.868 85.547 165.217 86.567 167.573 C 87.862 178.052 89.451 180.712 95.549 188.208 C 108.473 195.639 115.749 201.232 127.996 203.821 C 138.783 201.947 149.627 195.152 156.266 188.182 L 159.068 188.293 C 164.48 182.503 168.069 174.593 169.425 167.578 C 174.604 146.864 174.604 152.042 174.604 146.864 C 174.604 144.111 173.224 137.366 171.852 131.276 C 171.052 125.976 169.853 120.598 168.333 114.709 L 168.392 105.435 L 169.252 104.394 C 169.198 97.568 168.628 93.933 167.38 88.423 L 166.701 86.209 L 164.871 85.186 C 164.244 80.248 163.025 75.37 160.096 71.258 C 147.877 71.745 135.684 64.619 127.994 64.005"/>
    </g>
   </g>
   <defs>
    <filter id="GpxTNZbA3P94JNG0hQSUHPltomTsJGyl" width="400%" height="400%" x="-200%" y="-200%" color-interpolation-filters="sRGB" filterUnits="objectBoundingBox">
     <feGaussianBlur xmlns="http://www.w3.org/2000/svg" stdDeviation="4.294"/>
    </filter>
   </defs>
   <linearGradient id="_lgradient_37" x1="-10.849" x2="-10.849" y1="1" y2="0" gradientTransform="matrix(93.216,0,0,139.821,81.388,60.679)" gradientUnits="userSpaceOnUse">
    <stop offset="0%" style="stop-color:#282828"/>
    <stop offset="100%" style="stop-color:#665c54"/>
   </linearGradient>
   <path fill="url(#_lgradient_37)" fill-rule="evenodd" d="M 127.996 60.679 C 113.04 65.226 107.698 66.386 91.746 71.036 C 86.857 88.328 85.101 101.437 87.458 121.285 C 87.217 122.243 86.979 123.304 86.73 124.288 L 86.567 122.823 L 86.567 124.956 C 86.023 127.126 85.477 129.27 84.99 131.551 C 83.465 134.938 81.388 139.936 81.388 143.537 C 81.388 147.434 82.116 150.345 84.322 157.201 C 84.863 159.547 85.547 161.896 86.567 164.252 C 87.862 174.731 89.451 177.39 95.549 184.886 C 108.473 192.318 115.749 197.911 127.996 200.5 C 138.783 198.625 149.627 191.831 156.266 184.86 L 159.068 184.972 C 164.48 179.182 168.069 171.272 169.425 164.257 C 174.604 143.542 174.604 148.721 174.604 143.542 C 174.604 140.79 173.224 134.045 171.852 127.955 C 171.052 122.654 169.853 117.276 168.333 111.388 L 168.392 102.113 L 169.252 101.072 C 169.198 94.247 168.628 90.611 167.38 85.101 L 166.701 82.887 L 164.871 81.865 C 164.244 76.927 163.025 72.048 160.096 67.937 C 147.877 68.423 135.684 61.298 127.994 60.684"/>
   <g style="opacity:0.6">
    <g opacity=".6">
     <path fill="#282828" fill-rule="evenodd" d="M 96.924 164.252 L 102.362 157.908 C 103.423 156.543 103.253 155.837 103.253 154.671 C 103.201 152.812 103.146 151.168 103.084 149.671 C 103.022 148.175 102.952 146.826 102.864 145.557 C 102.779 144.288 102.675 143.097 102.551 141.922 C 102.201 137.965 101.43 136.145 100.29 135.601 L 94.853 133.144 C 96.101 143.18 96.753 153.571 96.924 164.242"/>
    </g>
   </g>
   <linearGradient id="_lgradient_38" x1=".001" x2="1.053" y1="-28.205" y2="-28.205" gradientTransform="matrix(9.842,0,0,47.802,81.38,119.974)" gradientUnits="userSpaceOnUse">
    <stop offset="0%" style="stop-color:#3c3836"/>
    <stop offset="100%" style="stop-color:#665c54"/>
   </linearGradient>
   <path fill="url(#_lgradient_38)" fill-rule="evenodd" d="M 87.318 119.974 C 87.359 120.412 87.395 120.834 87.45 121.29 C 87.209 122.248 86.971 123.309 86.722 124.293 L 86.559 122.828 L 86.559 124.961 C 86.015 127.131 85.469 129.275 84.982 131.556 C 83.457 134.943 81.38 139.941 81.38 143.542 C 81.38 147.439 82.108 150.35 84.314 157.206 C 84.855 159.552 85.539 161.901 86.559 164.257 C 86.733 165.655 86.942 166.681 87.147 167.776 C 95.189 145.829 89.164 125.337 87.318 119.974 Z"/>
   <linearGradient id="_lgradient_39" x1=".471" x2=".998" y1="-21.413" y2="-21.413" gradientTransform="matrix(9.811,0,0,62.69,164.809,114.068)" gradientUnits="userSpaceOnUse">
    <stop offset="0%" style="stop-color:#282828"/>
    <stop offset="100%" stop-opacity=".463" style="stop-color:#665c54"/>
   </linearGradient>
   <path fill="url(#_lgradient_39)" fill-rule="evenodd" d="M 168.985 114.071 L 164.809 176.758 C 167.025 172.67 168.654 168.333 169.441 164.257 C 174.62 143.542 174.62 148.721 174.62 143.542 C 174.62 140.79 173.24 134.045 171.867 127.955 C 171.191 123.491 170.179 118.902 168.985 114.068"/>
   <linearGradient id="_lgradient_40" x1="1.722" x2="1.632" y1="0" y2="1.339" gradientTransform="matrix(9.024,0,0,44.697,86.564,138.359)" gradientUnits="userSpaceOnUse">
    <stop offset="0%" style="stop-color:#282828"/>
    <stop offset="100%" style="stop-color:#665c54"/>
   </linearGradient>
   <path fill="url(#_lgradient_40)" fill-rule="evenodd" d="M 91.746 138.359 L 91.057 140.412 C 91.466 148.441 90.764 157.918 87.152 167.771 C 86.95 166.676 86.738 165.65 86.564 164.252 C 87.737 173.755 89.33 176.976 94.13 183.056 C 96.665 169.335 95.909 141.16 91.743 138.359"/>
   <path fill="#282828" fill-opacity=".384" d="M 127.996 60.679 C 127.45 60.844 127.222 60.896 126.702 61.054 L 126.702 126.707 C 126.702 127.424 127.279 128.001 127.996 128.001 C 128.713 128.001 129.291 127.424 129.291 126.707 L 129.291 60.891 C 128.864 60.824 128.4 60.71 127.996 60.679 Z"/>
   <linearGradient id="_lgradient_41" x1="0" x2="0" y1="0" y2="1" gradientTransform="matrix(12.429,0,0,7.768,121.782,109.876)" gradientUnits="userSpaceOnUse">
    <stop offset="0%" style="stop-color:#fabd2f"/>
    <stop offset="100%" style="stop-color:#b57614"/>
   </linearGradient>
   <path fill="url(#_lgradient_41)" fill-rule="evenodd" d="M 121.782 109.876 L 121.782 115.055 L 127.996 117.644 L 134.211 115.055 L 134.211 109.876 L 127.996 112.465 L 121.782 109.876 Z"/>
   <linearGradient id="_lgradient_42" x1="0" x2="0" y1="0" y2="1" gradientTransform="matrix(12.429,0,0,7.768,121.782,96.929)" gradientUnits="userSpaceOnUse">
    <stop offset="0%" style="stop-color:#fabd2f"/>
    <stop offset="100%" style="stop-color:#b57614"/>
   </linearGradient>
   <path fill="url(#_lgradient_42)" fill-rule="evenodd" d="M 121.782 104.697 L 121.782 99.519 L 127.996 96.929 L 134.211 99.519 L 134.211 104.697 L 127.996 102.108 L 121.782 104.697 Z"/>
   <linearGradient id="_lgradient_43" x1="0" x2="0" y1=".5" y2="-.5" gradientTransform="matrix(10.358,0,0,20.715,122.817,71.554)" gradientUnits="userSpaceOnUse">
    <stop offset="2.5%" style="stop-color:#282828"/>
    <stop offset="100%" style="stop-color:#665c54"/>
   </linearGradient>
   <path fill="url(#_lgradient_43)" d="M 124.112 71.554 L 131.88 71.554 C 132.595 71.554 133.175 72.134 133.175 72.849 L 133.175 90.974 C 133.175 91.688 132.595 92.269 131.88 92.269 L 124.112 92.269 C 123.398 92.269 122.817 91.688 122.817 90.974 L 122.817 72.849 C 122.817 72.134 123.398 71.554 124.112 71.554 Z"/>
   <linearGradient id="_lgradient_44" x1="0" x2="0" y1="0" y2="1" gradientTransform="matrix(6.512,0,0,46.862,164.26,81.134)" gradientUnits="userSpaceOnUse">
    <stop offset="0%" style="stop-color:#fabd2f"/>
    <stop offset="100%" style="stop-color:#b57614"/>
   </linearGradient>
   <path fill="url(#_lgradient_44)" fill-rule="evenodd" d="M 164.765 81.134 L 164.26 81.388 C 166.435 85.741 167.665 94.653 168.397 103.54 L 168.408 102.103 L 169.268 101.062 C 169.213 94.236 168.643 90.601 167.395 85.091 L 166.717 82.877 L 164.886 81.854 C 164.855 81.613 164.798 81.378 164.765 81.137 M 169.022 114.221 C 169.343 121.738 169.436 127.996 169.436 127.996 L 170.772 122.007 C 170.27 119.49 169.677 116.883 169.022 114.213"/>
  </g>
 </g>
</svg>
